lib/nrk-some-snapchat.svg

<svg viewBox="0 0 24 24" xmlns="http://www.w3.org/2000/svg"><path fill="currentColor" fill-rule="evenodd" clip-rule="evenodd" d="M6.40551 5.97005c-.31194.69956-.4048 1.61424-.37136 2.86295.00849.31687.02314.61753.04943 1.05095-.05798-.02192-.1196-.04802-.18459-.07849-.18843-.08828-.3948-.13049-.60995-.13049-.74101 0-1.50007.48713-1.64061 1.22763-.14489.7613.35321 1.4205 1.40334 1.8353.08856.035.16057.059.32609.1113.16939.0538.24999.0809.34284.1171.07166.028.13015.0547.17454.075.04908.0225.0809.037.09419.0366-.00642.0054-.01465.0231-.02899.0538-.008.0172-.0179.0384-.03046.0639 0 0-.01294.0269-.02701.0591-.52144 1.2136-1.62801 2.5174-3.28641 2.7904-.56346.093-.96601.5952-.93488 1.1648.00837.146.04192.2871.09859.4208.3043.7115 1.15502 1.1099 2.62594 1.3806.04755.2174.07387.3267.11687.4729.14464.4928.54934.8559 1.15657.8559.1682 0 .28419-.0179.57237-.0745.03894-.0076.05881-.0115.0787-.0153.02072-.0039.04146-.0078.08381-.0157.26002-.0474.47944-.0715.72208-.0715.19891 0 .4065.0175.61598.0522.26145.0436.48538.1691 1.07733.5876 1.18348.8368 1.88848 1.1631 3.05128 1.1631.0341-.0004.0519-.0005.0698-.0011.0197-.0007.0394-.0018.0808-.0043-.0028.0011-.0049.0019-.0048.0025.0001.0018.0187.002.0918.0029 1.163 0 1.8681-.3264 3.0511-1.163.3154-.2228.4441-.3095.5953-.3964.1874-.1075.3394-.1674.483-.1913.2088-.0347.4164-.0522.6154-.0522.3007 0 .5492.0297.8854.0953.2227.0436.411.0669.5935.067.5435 0 .983-.3292 1.1352-.8509.0421-.1429.0719-.2652.1158-.465 1.471-.2705 2.3213-.6678 2.6247-1.3757.0577-.134.0919-.2773.1001-.4232.0319-.5704-.3712-1.0729-.9347-1.1656-1.6592-.2735-2.7666-1.5785-3.2888-2.7959-.0042-.0097-.0068-.0157-.0095-.0217-.0044-.0097-.0091-.0193-.0215-.0445-.0076-.0153-.0141-.0291-.0197-.041-.0172-.0362-.0267-.0564-.0355-.0581.0534-.0271.2615-.1228.614-.2346.1669-.053.2378-.0766.3255-.1113.8992-.3551 1.44-.8779 1.426-1.6214-.0121-.6132-.4412-1.1086-1.051-1.33055-.1889-.0783-.4238-.12309-.655-.12309-.2248 0-.4519.03905-.6727.14239a2.895415 2.895415 0 01-.0767.03459c.1171-2.01396.0727-2.9818-.3242-3.87159-1.1369-2.54908-3.2659-3.48827-5.4096-3.48827-.0266-.00001-.0266-.00001-.0624.00049l-.1581.00148-.1586.00139c-2.13839 0-4.26386.93886-5.40029 3.48671zM18.6681 11.1029c.0462 0 .0944.0092.1452.0299.0089.0031.0171.0062.0247.0089.0297.0109.0504.0185.0644.0195-.0564.0361-.1958.1239-.4831.2373-.0453.0179-.0994.036-.2323.0782-.8766.278-1.2746.4793-1.5179 1.0526-.1713.4044-.1146.8454.1061 1.2962.6266 1.4549 1.8093 2.92 3.6842 3.4813-.3288.1177-.842.248-1.5394.3562-.1872.0291-.3554.1307-.4681.283h-.0001c-.0457.0668-.0457.0668-.0737.1187-.0609.1169-.0985.2395-.1412.4156-.0141.06-.0203.0865-.0263.1131-.0047.0211-.0093.0423-.0176.0803-.0168.0769-.0308.1391-.0438.1935-.0374-.0059-.0788-.0132-.124-.022-.4199-.082-.7554-.1221-1.1615-.1221-.279 0-.5654.0242-.8515.0717-.3309.055-.6385.1762-.9639.363-.2043.1173-.3556.2192-.7095.4692-.9581.6775-1.4364.899-2.22.899-.0299-.0004-.0442-.0005-.0585-.0009-.013-.0003-.026-.0009-.0509-.0018-.1025.0024-.1027.0024-.1281.0027h-.0001c-.7834 0-1.2618-.2214-2.21996-.8989-.77459-.5477-1.11747-.7397-1.67247-.8323-.28709-.0476-.57341-.0717-.85216-.0717-.34014 0-.64175.0332-.98032.0949-.05241.0097-.07664.0143-.10084.0189-.0208.004-.04159.008-.08025.0156-.04854.0095-.08921.0173-.12348.0236-.01254-.0535-.02662-.1167-.04447-.1987-.00837-.0383-.01303-.0596-.01783-.0809-.00603-.0268-.01229-.0535-.0264-.1137-.04275-.1762-.08034-.2988-.14105-.4158-.01178-.0218-.01859-.0345-.02596-.0468-.0101-.0169-.02124-.0332-.04766-.0718-.11275-.1526-.28118-.2545-.46867-.2836-.69869-.1085-1.21228-.2391-1.54089-.3571 1.87649-.5606 3.05924-2.0269 3.68744-3.485.21889-.4441.27712-.8874.10469-1.2936-.18798-.4428-.55864-.6984-1.08721-.9044-.13055-.0509-.23183-.085-.43088-.1482-.13199-.0417-.18614-.0598-.23172-.0778-.26557-.1049-.39533-.1692-.45862-.2005-.03187-.0158-.04688-.0233-.05389-.0233.0077-.001.02296-.0072.0432-.0155.04444-.0181.11286-.046.17765-.0493.4219.1976.81813.3034 1.1869.3034.28175 0 .52517-.0625.72206-.1714.2421-.134.38602-.3948.37026-.671-.00658-.113-.00658-.113-.01354-.2263l-.00692-.1107-.00848-.1347-.00907-.14472c-.0316-.50674-.04809-.82702-.05702-1.16024-.02803-1.0467.04747-1.79037.24702-2.23788.86038-1.92896 2.45474-2.63322 4.08514-2.63322.0181-.00012.0305-.0002.0429-.00029.0269-.0002.0538-.00046.1392-.00126l.1978-.00181c1.6349 0 3.233.70493 4.0937 2.63482.2815.6312.3053 1.57172.1808 3.5456l-.0034.057c-.0132.2096-.0132.2098-.0251.4128l-.0001.0007c-.0157.2765.1286.5375.3711.6713.176.0971.3905.1576.6369.169.4098-.0153.7773-.1195 1.1665-.3019.0038-.0018.031-.0064.062-.0064zm-13.60102.0721c.00046-.0001.00096-.0001.00152-.0001-.00055 0-.00105.0001-.00152.0001zm13.83532-.0138c.012.0008.0192-.0033.0229-.0145-.0044.0026-.0106.0065-.0186.0117a.30012.30012 0 00-.0043.0028z"/></svg>

<svg viewBox="0 0 24 24"  xmlns="http://www.w3.org/2000/svg">
<path fill-rule="evenodd" clip-rule="evenodd" d="M6.40551 5.97005C6.09357 6.66961 6.00071 7.58429 6.03415 8.833C6.04264 9.14987 6.05729 9.45053 6.08358 9.88395C6.0256 9.86203 5.96398 9.83593 5.89899 9.80546C5.71056 9.71718 5.50419 9.67497 5.28904 9.67497C4.54803 9.67497 3.78897 10.1621 3.64843 10.9026C3.50354 11.6639 4.00164 12.3231 5.05177 12.7379C5.14033 12.7729 5.21234 12.7969 5.37786 12.8492C5.54725 12.903 5.62785 12.9301 5.7207 12.9663C5.79236 12.9943 5.85085 13.021 5.89524 13.0413C5.94432 13.0638 5.97614 13.0783 5.98943 13.0779C5.98301 13.0833 5.97478 13.101 5.96044 13.1317C5.95244 13.1489 5.94254 13.1701 5.92998 13.1956C5.92998 13.1956 5.91704 13.2225 5.90297 13.2547C5.38153 14.4683 4.27496 15.7721 2.61656 16.0451C2.0531 16.1381 1.65055 16.6403 1.68168 17.2099C1.69005 17.3559 1.7236 17.497 1.78027 17.6307C2.08457 18.3422 2.93529 18.7406 4.40621 19.0113C4.45376 19.2287 4.48008 19.338 4.52308 19.4842C4.66772 19.977 5.07242 20.3401 5.67965 20.3401C5.84785 20.3401 5.96384 20.3222 6.25202 20.2656C6.29096 20.258 6.31083 20.2541 6.33072 20.2503C6.35144 20.2464 6.37218 20.2425 6.41453 20.2346C6.67455 20.1872 6.89397 20.1631 7.13661 20.1631C7.33552 20.1631 7.54311 20.1806 7.75259 20.2153C8.01404 20.2589 8.23797 20.3844 8.82992 20.8029C10.0134 21.6397 10.7184 21.966 11.8812 21.966C11.9153 21.9656 11.9331 21.9655 11.951 21.9649C11.9707 21.9642 11.9904 21.9631 12.0318 21.9606C12.029 21.9617 12.0269 21.9625 12.027 21.9631C12.0271 21.9649 12.0457 21.9651 12.1188 21.966C13.2818 21.966 13.9869 21.6396 15.1699 20.803C15.4853 20.5802 15.614 20.4935 15.7652 20.4066C15.9526 20.2991 16.1046 20.2392 16.2482 20.2153C16.457 20.1806 16.6646 20.1631 16.8636 20.1631C17.1643 20.1631 17.4128 20.1928 17.749 20.2584C17.9717 20.302 18.16 20.3253 18.3425 20.3254C18.886 20.3254 19.3255 19.9962 19.4777 19.4745C19.5198 19.3316 19.5496 19.2093 19.5935 19.0095C21.0645 18.739 21.9148 18.3417 22.2182 17.6338C22.2759 17.4998 22.3101 17.3565 22.3183 17.2106C22.3502 16.6402 21.9471 16.1377 21.3836 16.045C19.7244 15.7715 18.617 14.4665 18.0948 13.2491C18.0906 13.2394 18.088 13.2334 18.0853 13.2274C18.0809 13.2177 18.0762 13.2081 18.0638 13.1829C18.0562 13.1676 18.0497 13.1538 18.0441 13.1419C18.0269 13.1057 18.0174 13.0855 18.0086 13.0838C18.062 13.0567 18.2701 12.961 18.6226 12.8492C18.7895 12.7962 18.8604 12.7726 18.9481 12.7379C19.8473 12.3828 20.3881 11.86 20.3741 11.1165C20.362 10.5033 19.9329 10.0079 19.3231 9.78595C19.1342 9.70765 18.8993 9.66286 18.6681 9.66286C18.4433 9.66286 18.2162 9.70191 17.9954 9.80525C17.9693 9.81748 17.9437 9.829 17.9187 9.83984C18.0358 7.82588 17.9914 6.85804 17.5945 5.96825C16.4576 3.41917 14.3286 2.47998 12.1849 2.47998C12.1583 2.47997 12.1583 2.47997 12.1225 2.48047L11.9644 2.48195L11.8058 2.48334C9.66741 2.48334 7.54194 3.4222 6.40551 5.97005ZM18.6681 11.1029C18.7143 11.1029 18.7625 11.1121 18.8133 11.1328C18.8222 11.1359 18.8304 11.139 18.838 11.1417C18.8677 11.1526 18.8884 11.1602 18.9024 11.1612C18.846 11.1973 18.7066 11.2851 18.4193 11.3985C18.374 11.4164 18.3199 11.4345 18.187 11.4767C17.3104 11.7547 16.9124 11.956 16.6691 12.5293C16.4978 12.9337 16.5545 13.3747 16.7752 13.8255C17.4018 15.2804 18.5845 16.7455 20.4594 17.3068C20.1306 17.4245 19.6174 17.5548 18.92 17.663C18.7328 17.6921 18.5646 17.7937 18.4519 17.946L18.4518 17.946C18.4061 18.0128 18.4061 18.0128 18.3781 18.0647C18.3172 18.1816 18.2796 18.3042 18.2369 18.4803C18.2228 18.5403 18.2166 18.5668 18.2106 18.5934C18.2059 18.6145 18.2013 18.6357 18.193 18.6737C18.1762 18.7506 18.1622 18.8128 18.1492 18.8672C18.1118 18.8613 18.0704 18.854 18.0252 18.8452C17.6053 18.7632 17.2698 18.7231 16.8637 18.7231C16.5847 18.7231 16.2983 18.7473 16.0122 18.7948C15.6813 18.8498 15.3737 18.971 15.0483 19.1578C14.844 19.2751 14.6927 19.377 14.3388 19.627C13.3807 20.3045 12.9024 20.526 12.1188 20.526C12.0889 20.5256 12.0746 20.5255 12.0603 20.5251C12.0473 20.5248 12.0343 20.5242 12.0094 20.5233C11.9069 20.5257 11.9067 20.5257 11.8813 20.526H11.8812C11.0978 20.526 10.6194 20.3046 9.66124 19.6271C8.88665 19.0794 8.54377 18.8874 7.98877 18.7948C7.70168 18.7472 7.41536 18.7231 7.13661 18.7231C6.79647 18.7231 6.49486 18.7563 6.15629 18.818C6.10388 18.8277 6.07965 18.8323 6.05545 18.8369C6.03465 18.8409 6.01386 18.8449 5.9752 18.8525C5.92666 18.862 5.88599 18.8698 5.85172 18.8761C5.83918 18.8226 5.8251 18.7594 5.80725 18.6774C5.79888 18.6391 5.79422 18.6178 5.78942 18.5965C5.78339 18.5697 5.77713 18.543 5.76302 18.4828C5.72027 18.3066 5.68268 18.184 5.62197 18.067C5.61019 18.0452 5.60338 18.0325 5.59601 18.0202C5.58591 18.0033 5.57477 17.987 5.54835 17.9484C5.4356 17.7958 5.26717 17.6939 5.07968 17.6648C4.38099 17.5563 3.8674 17.4257 3.53879 17.3077C5.41528 16.7471 6.59803 15.2808 7.22623 13.8227C7.44512 13.3786 7.50335 12.9353 7.33092 12.5291C7.14294 12.0863 6.77228 11.8307 6.24371 11.6247C6.11316 11.5738 6.01188 11.5397 5.81283 11.4765C5.68084 11.4348 5.62669 11.4167 5.58111 11.3987C5.31554 11.2938 5.18578 11.2295 5.12249 11.1982C5.09062 11.1824 5.07561 11.1749 5.0686 11.1749C5.0763 11.1739 5.09156 11.1677 5.1118 11.1594C5.15624 11.1413 5.22466 11.1134 5.28945 11.1101C5.71135 11.3077 6.10758 11.4135 6.47635 11.4135C6.7581 11.4135 7.00152 11.351 7.19841 11.2421C7.44051 11.1081 7.58443 10.8473 7.56867 10.5711C7.56209 10.4581 7.56209 10.4581 7.55513 10.3448L7.55513 10.3448L7.54821 10.2341L7.53973 10.0994L7.53066 9.95468C7.49906 9.44794 7.48257 9.12766 7.47364 8.79444C7.44561 7.74774 7.52111 7.00407 7.72066 6.55656C8.58104 4.6276 10.1754 3.92334 11.8058 3.92334C11.8239 3.92322 11.8363 3.92314 11.8487 3.92305C11.8756 3.92285 11.9025 3.92259 11.9879 3.92179L12.1857 3.91998C13.8206 3.91998 15.4187 4.62491 16.2794 6.5548C16.5609 7.186 16.5847 8.12652 16.4602 10.1004L16.4568 10.1574C16.4436 10.367 16.4436 10.3672 16.4317 10.5702L16.4316 10.5709C16.4159 10.8474 16.5602 11.1084 16.8027 11.2422C16.9787 11.3393 17.1932 11.3998 17.4396 11.4112C17.8494 11.3959 18.2169 11.2917 18.6061 11.1093C18.6099 11.1075 18.6371 11.1029 18.6681 11.1029ZM5.06708 11.175C5.06754 11.1749 5.06804 11.1749 5.0686 11.1749C5.06805 11.1749 5.06755 11.175 5.06708 11.175ZM18.9024 11.1612C18.9144 11.162 18.9216 11.1579 18.9253 11.1467C18.9209 11.1493 18.9147 11.1532 18.9067 11.1584C18.9053 11.1593 18.9039 11.1602 18.9024 11.1612Z" />
</svg>
